X: 42195
T: Wattentaler, The
R: mazurka
M: 3/4
K: Gmajor
|:d e>d|d2 g>d B>G|F2 A>c f>e|d2 f>d c>F|G2 B>d g>e|
d2 g>d B>G|F2 A>c f>e|d2 f>d c>F|G2 G>g f>e|
d2 B>d B>d|d2 c>d f>e|d2 c>d F>d|d2 B>d g>e|
d2 B>d B>d|d2 c>d f>e|d2 ^c>d e>f|g2 g:|

